packages/ui/public/icons/profile-camera-icon.svg

<svg width="42" height="42" viewBox="0 0 42 42" fill="none" xmlns="http://www.w3.org/2000/svg">
  <path opacity="0.4" d="M3.5 14.6601C3.5 14.0471 3.5 13.7405 3.52559 13.4824C3.7723 10.9922 5.74222 9.0223 8.23237 8.77558C8.49054 8.75 8.81363 8.75 9.45977 8.75C9.70874 8.75 9.83323 8.75 9.93893 8.74359C11.2886 8.66185 12.4704 7.81004 12.9747 6.5555C13.0142 6.45726 13.0512 6.3465 13.125 6.125C13.1988 5.9035 13.2358 5.79274 13.2753 5.6945C13.7796 4.43996 14.9614 3.58815 16.3111 3.5064C16.4168 3.5 16.5335 3.5 16.767 3.5H25.2331C25.4665 3.5 25.5833 3.5 25.689 3.5064C27.0386 3.58815 28.2205 4.43996 28.7247 5.6945C28.7642 5.79274 28.8012 5.9035 28.875 6.125C28.9488 6.3465 28.9858 6.45726 29.0253 6.5555C29.5295 7.81004 30.7115 8.66185 32.0611 8.74359C32.1668 8.75 32.2912 8.75 32.5402 8.75C33.1863 8.75 33.5095 8.75 33.7676 8.77558C36.2577 9.0223 38.2277 10.9922 38.4744 13.4824C38.5 13.7405 38.5 14.0471 38.5 14.6601V28.35C38.5 31.2904 38.5 32.7603 37.9278 33.8835C37.4245 34.8714 36.6214 35.6745 35.6335 36.1778C34.5103 36.75 33.0404 36.75 30.1 36.75H11.9C8.95972 36.75 7.48958 36.75 6.36655 36.1778C5.3787 35.6745 4.57555 34.8714 4.07222 33.8835C3.5 32.7603 3.5 31.2904 3.5 28.35V14.6601Z" stroke="white" stroke-width="3.5" stroke-linecap="round" stroke-linejoin="round" />
  <path d="M21 28.875C24.8659 28.875 28 25.7409 28 21.875C28 18.0091 24.8659 14.875 21 14.875C17.134 14.875 14 18.0091 14 21.875C14 25.7409 17.134 28.875 21 28.875Z" stroke="white" stroke-width="3.5" stroke-linecap="round" stroke-linejoin="round" />
</svg>

<svg width="42" height="42" fill="none" xmlns="http://www.w3.org/2000/svg"><path opacity=".4" d="M3.5 14.66c0-.613 0-.92.026-1.178a5.25 5.25 0 0 1 4.706-4.706c.259-.026.582-.026 1.228-.026.249 0 .373 0 .479-.006a3.5 3.5 0 0 0 3.036-2.188c.04-.099.076-.21.15-.431s.11-.332.15-.43a3.5 3.5 0 0 1 3.036-2.189c.106-.006.223-.006.456-.006h8.466c.233 0 .35 0 .456.006a3.5 3.5 0 0 1 3.036 2.188c.04.099.076.21.15.431s.11.332.15.43a3.5 3.5 0 0 0 3.036 2.189c.106.006.23.006.48.006.645 0 .969 0 1.227.026a5.25 5.25 0 0 1 4.706 4.706c.026.259.026.565.026 1.178v13.69c0 2.94 0 4.41-.572 5.533a5.249 5.249 0 0 1-2.294 2.295c-1.124.572-2.594.572-5.534.572H11.9c-2.94 0-4.41 0-5.533-.572a5.25 5.25 0 0 1-2.295-2.294C3.5 32.76 3.5 31.29 3.5 28.35V14.66Z" stroke="#fff" stroke-width="3.5" stroke-linecap="round" stroke-linejoin="round"/><path d="M21 28.875a7 7 0 1 0 0-14 7 7 0 0 0 0 14Z" stroke="#fff" stroke-width="3.5" stroke-linecap="round" stroke-linejoin="round"/></svg>
